X:2544
T:Cantar de Ronda (CT 064)
R:Ronda
C:Tradicional
S:Música Tradicional Asturiana, (C) Tello & Tito. Asturies, 2001.
S:http://pagina.de/MusTradAst <telloytito@asturies.org>
N:Canción de Ronda.
N:Se cantaba en Uviéu hace más de medio siglo, con acompañamiento de guitarras y bandurrias.
N:Hemos recogido versiones de esta misma canción en las provincias de Lleón y Zamora.
O:Uviéu
A:Asturies
Z:Cancioneru de Torner 064
M:2/4
L:1/8
Q:1/4=108
W:Te quiero porque te quiero
W:y en mi querer nadie manda;
W:te quiero porque me sale
W:de lo profundo del alma.
W:
W:Prenda de mi corazón,
W:mis amores tuyos son
W:y los tuyos míos no.
W:
W:Si quieres que enrame tu puerta,
W:y hermosa y galana,
W:ponte a la ventana
W:y verás como crece la caña.
W:De olor hasta que la rama
W:llegue a tu balcón.
W:
W:Prenda de mi corazón,
W:mis amores tuyos son
W:y los tuyos míos no.
K:C
G
|(3BBB de|e>d de|e>d de|ed-dG|
(3BBB de|e>d de|e>d de|ed Bd|
d>c Ac|B2 Bd|d>c Ac|B2 Bd|
d>c Ac|B2 z G|(3GGG (3Gee|(3edd (3dee|
(3edd (3dee|(3edd (3dee|(3edd (3dee|(3(ed)B (3Bcd|
(3dcB (3ABc|B2 Bd|d>c Ac|B2 Bd|
d>c Ac|B2 Bd|d>c Ac|B2 z2||


